rospo-icon-theme-classic-common/48x48/apps/com.github.thejambi.psnotes.svg

<svg height="48" width="48" xmlns="http://www.w3.org/2000/svg"><path d="m40 43v-29c0-1.108-.892-2-2-2h-28c-1.108 0-2 .892-2 2v29c0 1.108.892 2 2 2h28c1.108 0 2-.892 2-2z" opacity=".2"/><path d="m40 42v-29c0-1.108-.892-2-2-2h-28c-1.108 0-2 .892-2 2v29c0 1.108.892 2 2 2h28c1.108 0 2-.892 2-2z" fill="#4691c8"/><path d="m40 13v-4c0-1.108-.892-2-2-2h-28c-1.108 0-2 .892-2 2v4z" fill="#474747"/><path d="m10.9375 5c-.519177 0-.9375.4078647-.9375.9140625v4.1718755c0 .506197.418323.914062.9375.914062h2.125c.519177 0 .9375-.407865.9375-.914062v-4.1718755c0-.5061978-.418323-.9140625-.9375-.9140625zm8 0c-.519177 0-.9375.4078647-.9375.9140625v4.1718755c0 .506197.418323.914062.9375.914062h2.125c.519177 0 .9375-.407865.9375-.914062v-4.1718755c0-.5061978-.418323-.9140625-.9375-.9140625zm8 0c-.519177 0-.9375.4078647-.9375.9140625v4.1718755c0 .506197.418323.914062.9375.914062h2.125c.519177 0 .9375-.407865.9375-.914062v-4.1718755c0-.5061978-.418323-.9140625-.9375-.9140625zm8 0c-.519177 0-.9375.4078647-.9375.9140625v4.1718755c0 .506197.418323.914062.9375.914062h2.125c.519177 0 .9375-.407865.9375-.914062v-4.1718755c0-.5061978-.418323-.9140625-.9375-.9140625z" opacity=".2"/><path d="m10.9375 4c-.519177 0-.9375.4078647-.9375.9140625v4.171875c0 .5061978.418323.9140625.9375.9140625h2.125c.519177 0 .9375-.4078647.9375-.9140625v-4.171875c0-.5061978-.418323-.9140625-.9375-.9140625zm8 0c-.519177 0-.9375.4078647-.9375.9140625v4.171875c0 .5061978.418323.9140625.9375.9140625h2.125c.519177 0 .9375-.4078647.9375-.9140625v-4.171875c0-.5061978-.418323-.9140625-.9375-.9140625zm8 0c-.519177 0-.9375.4078647-.9375.9140625v4.171875c0 .5061978.418323.9140625.9375.9140625h2.125c.519177 0 .9375-.4078647.9375-.9140625v-4.171875c0-.5061978-.418323-.9140625-.9375-.9140625zm8 0c-.519177 0-.9375.4078647-.9375.9140625v4.171875c0 .5061978.418323.9140625.9375.9140625h2.125c.519177 0 .9375-.4078647.9375-.9140625v-4.171875c0-.5061978-.418323-.9140625-.9375-.9140625z" fill="#8e8e8e"/><path d="m10.9375 4c-.519177 0-.9375.4078647-.9375.9140625v1c0-.5061978.418323-.9140625.9375-.9140625h2.125c.519177 0 .9375.4078647.9375.9140625v-1c0-.5061978-.418323-.9140625-.9375-.9140625zm8 0c-.519177 0-.9375.4078647-.9375.9140625v1c0-.5061978.418323-.9140625.9375-.9140625h2.125c.519177 0 .9375.4078647.9375.9140625v-1c0-.5061978-.418323-.9140625-.9375-.9140625zm8 0c-.519177 0-.9375.4078647-.9375.9140625v1c0-.5061978.418323-.9140625.9375-.9140625h2.125c.519177 0 .9375.4078647.9375.9140625v-1c0-.5061978-.418323-.9140625-.9375-.9140625zm8 0c-.519177 0-.9375.4078647-.9375.9140625v1c0-.5061978.418323-.9140625.9375-.9140625h2.125c.519177 0 .9375.4078647.9375.9140625v-1c0-.5061978-.418323-.9140625-.9375-.9140625z" fill="#fff" opacity=".2"/><g fill="none" stroke-linecap="round" stroke-width="2.999811"><path d="m11.521134 35.478717s5.999694.67785 5.999694-2.999811c0-3.677665-5.999694-2.999883-5.999694-2.999883m.000143 11.999709v-11.999562" opacity=".2" stroke="#000" stroke-linejoin="bevel"/><path d="m11.521134 34.478717s5.999694.67785 5.999694-2.999811c0-3.677665-5.999694-2.999883-5.999694-2.999883m.000143 11.999709v-11.999562" stroke="#fff" stroke-linejoin="bevel"/><path d="m22.51297 40.500159s.767967 1.000657 2.999812.999935c2.231833-.000714 2.999894-1.507558 2.999894-2.999811 0-6.288938-6.008647.270635-5.990768-5.999622-.01814-1.50613.728383-2.999811 2.990874-2.999811 2.262483 0 2.999728.999936 2.999728.999936" opacity=".2" stroke="#000" stroke-linejoin="round"/><path d="m22.51297 39.500159s.767967 1.000657 2.999812.999935c2.231833-.000714 2.999894-1.507558 2.999894-2.999811 0-6.288938-6.008647.270635-5.990768-5.999622-.01814-1.50613.728383-2.999811 2.990874-2.999811 2.262483 0 2.999728.999936 2.999728.999936" stroke="#fff" stroke-linejoin="round"/></g><circle cx="16.5" cy="41.5" opacity=".2" r="1.5"/><circle cx="16.5" cy="40.5" fill="#fff" r="1.5"/><circle cx="32.5" cy="41.5" opacity=".2" r="1.5"/><circle cx="32.5" cy="40.5" fill="#fff" r="1.5"/></svg>

<svg xmlns="http://www.w3.org/2000/svg" width="48" height="48" version="1">
 <path style="opacity:0.2" d="m 40,43 0,-29 c 0,-1.108 -0.892,-2 -2,-2 l -28,0 c -1.108,0 -2,0.892 -2,2 l 0,29 c 0,1.108 0.892,2 2,2 l 28,0 c 1.108,0 2,-0.892 2,-2 z"/>
 <path style="fill:#4691c8" d="m 40,42 0,-29 c 0,-1.108 -0.892,-2 -2,-2 l -28,0 c -1.108,0 -2,0.892 -2,2 l 0,29 c 0,1.108 0.892,2 2,2 l 28,0 c 1.108,0 2,-0.892 2,-2 z"/>
 <path style="fill:#474747" d="M 40,13 40,9 C 40,7.892 39.108,7 38,7 L 10,7 C 8.892,7 8,7.892 8,9 l 0,4 z"/>
 <path style="opacity:0.2" d="M 10.9375,5 C 10.418323,5 10,5.4078647 10,5.9140625 l 0,4.1718755 C 10,10.592135 10.418323,11 10.9375,11 l 2.125,0 C 13.581677,11 14,10.592135 14,10.085938 L 14,5.9140625 C 14,5.4078647 13.581677,5 13.0625,5 Z m 8,0 C 18.418323,5 18,5.4078647 18,5.9140625 l 0,4.1718755 C 18,10.592135 18.418323,11 18.9375,11 l 2.125,0 C 21.581677,11 22,10.592135 22,10.085938 L 22,5.9140625 C 22,5.4078647 21.581677,5 21.0625,5 Z m 8,0 C 26.418323,5 26,5.4078647 26,5.9140625 l 0,4.1718755 C 26,10.592135 26.418323,11 26.9375,11 l 2.125,0 C 29.581677,11 30,10.592135 30,10.085938 L 30,5.9140625 C 30,5.4078647 29.581677,5 29.0625,5 Z m 8,0 C 34.418323,5 34,5.4078647 34,5.9140625 l 0,4.1718755 C 34,10.592135 34.418323,11 34.9375,11 l 2.125,0 C 37.581677,11 38,10.592135 38,10.085938 L 38,5.9140625 C 38,5.4078647 37.581677,5 37.0625,5 Z"/>
 <path style="fill:#8e8e8e" d="M 10.9375,4 C 10.418323,4 10,4.4078647 10,4.9140625 l 0,4.171875 C 10,9.5921353 10.418323,10 10.9375,10 l 2.125,0 C 13.581677,10 14,9.5921353 14,9.0859375 l 0,-4.171875 C 14,4.4078647 13.581677,4 13.0625,4 Z m 8,0 C 18.418323,4 18,4.4078647 18,4.9140625 l 0,4.171875 C 18,9.5921353 18.418323,10 18.9375,10 l 2.125,0 C 21.581677,10 22,9.5921353 22,9.0859375 l 0,-4.171875 C 22,4.4078647 21.581677,4 21.0625,4 Z m 8,0 C 26.418323,4 26,4.4078647 26,4.9140625 l 0,4.171875 C 26,9.5921353 26.418323,10 26.9375,10 l 2.125,0 C 29.581677,10 30,9.5921353 30,9.0859375 l 0,-4.171875 C 30,4.4078647 29.581677,4 29.0625,4 Z m 8,0 C 34.418323,4 34,4.4078647 34,4.9140625 l 0,4.171875 C 34,9.5921353 34.418323,10 34.9375,10 l 2.125,0 C 37.581677,10 38,9.5921353 38,9.0859375 l 0,-4.171875 C 38,4.4078647 37.581677,4 37.0625,4 Z"/>
 <path style="opacity:0.2;fill:#ffffff" d="M 10.9375,4 C 10.418323,4 10,4.4078647 10,4.9140625 l 0,1 C 10,5.4078647 10.418323,5 10.9375,5 l 2.125,0 C 13.581677,5 14,5.4078647 14,5.9140625 l 0,-1 C 14,4.4078647 13.581677,4 13.0625,4 l -2.125,0 z m 8,0 C 18.418323,4 18,4.4078647 18,4.9140625 l 0,1 C 18,5.4078647 18.418323,5 18.9375,5 l 2.125,0 C 21.581677,5 22,5.4078647 22,5.9140625 l 0,-1 C 22,4.4078647 21.581677,4 21.0625,4 l -2.125,0 z m 8,0 C 26.418323,4 26,4.4078647 26,4.9140625 l 0,1 C 26,5.4078647 26.418323,5 26.9375,5 l 2.125,0 C 29.581677,5 30,5.4078647 30,5.9140625 l 0,-1 C 30,4.4078647 29.581677,4 29.0625,4 l -2.125,0 z m 8,0 C 34.418323,4 34,4.4078647 34,4.9140625 l 0,1 C 34,5.4078647 34.418323,5 34.9375,5 l 2.125,0 C 37.581677,5 38,5.4078647 38,5.9140625 l 0,-1 C 38,4.4078647 37.581677,4 37.0625,4 l -2.125,0 z"/>
 <path style="opacity:0.2;fill:none;stroke:#000000;stroke-width:2.99981117;stroke-linecap:round;stroke-linejoin:bevel" d="m 11.521134,35.478717 c 0,0 5.999694,0.67785 5.999694,-2.999811 0,-3.677665 -5.999694,-2.999883 -5.999694,-2.999883 m 1.43e-4,11.999709 0,-11.999562"/>
 <path d="m 11.521134,34.478717 c 0,0 5.999694,0.67785 5.999694,-2.999811 0,-3.677665 -5.999694,-2.999883 -5.999694,-2.999883 m 1.43e-4,11.999709 0,-11.999562" style="fill:none;stroke:#ffffff;stroke-width:2.99981117;stroke-linecap:round;stroke-linejoin:bevel"/>
 <path d="m 22.51297,40.500159 c 0,0 0.767967,1.000657 2.999812,0.999935 2.231833,-7.14e-4 2.999894,-1.507558 2.999894,-2.999811 0,-6.288938 -6.008647,0.270635 -5.990768,-5.999622 -0.01814,-1.50613 0.728383,-2.999811 2.990874,-2.999811 2.262483,0 2.999728,0.999936 2.999728,0.999936" style="opacity:0.2;fill:none;stroke:#000000;stroke-width:2.99981117;stroke-linecap:round;stroke-linejoin:round"/>
 <path style="fill:none;stroke:#ffffff;stroke-width:2.99981117;stroke-linecap:round;stroke-linejoin:round" d="m 22.51297,39.500159 c 0,0 0.767967,1.000657 2.999812,0.999935 2.231833,-7.14e-4 2.999894,-1.507558 2.999894,-2.999811 0,-6.288938 -6.008647,0.270635 -5.990768,-5.999622 -0.01814,-1.50613 0.728383,-2.999811 2.990874,-2.999811 2.262483,0 2.999728,0.999936 2.999728,0.999936"/>
 <circle cx="16.5" cy="41.5" r="1.5" style="opacity:0.2"/>
 <circle style="fill:#ffffff" cx="16.5" cy="40.5" r="1.5"/>
 <circle style="opacity:0.2" cx="32.5" cy="41.5" r="1.5"/>
 <circle cx="32.5" cy="40.5" r="1.5" style="fill:#ffffff"/>
</svg>
